images/50368399.svg

<?xml version="1.0" encoding="UTF-8"?>
<svg xmlns="http://www.w3.org/2000/svg" xmlns:xlink="http://www.w3.org/1999/xlink" width="300pt" height="300pt" viewBox="0 0 300 300" version="1.1">
<defs>
<g>
<symbol overflow="visible" id="glyph0-0">
<path style="stroke:none;" d="M 0.59375 2.125 L 0.59375 -8.46875 L 6.59375 -8.46875 L 6.59375 2.125 Z M 1.265625 1.453125 L 5.9375 1.453125 L 5.9375 -7.78125 L 1.265625 -7.78125 Z M 1.265625 1.453125 "/>
</symbol>
<symbol overflow="visible" id="glyph0-1">
<path style="stroke:none;" d="M 4.734375 -7.953125 C 3.867188 -7.953125 3.179688 -7.628906 2.671875 -6.984375 C 2.171875 -6.347656 1.921875 -5.472656 1.921875 -4.359375 C 1.921875 -3.265625 2.171875 -2.394531 2.671875 -1.75 C 3.179688 -1.113281 3.867188 -0.796875 4.734375 -0.796875 C 5.585938 -0.796875 6.265625 -1.113281 6.765625 -1.75 C 7.273438 -2.394531 7.53125 -3.265625 7.53125 -4.359375 C 7.53125 -5.472656 7.273438 -6.347656 6.765625 -6.984375 C 6.265625 -7.628906 5.585938 -7.953125 4.734375 -7.953125 Z M 4.734375 -8.90625 C 5.953125 -8.90625 6.925781 -8.492188 7.65625 -7.671875 C 8.394531 -6.847656 8.765625 -5.742188 8.765625 -4.359375 C 8.765625 -2.984375 8.394531 -1.882812 7.65625 -1.0625 C 6.925781 -0.238281 5.953125 0.171875 4.734375 0.171875 C 3.503906 0.171875 2.519531 -0.238281 1.78125 -1.0625 C 1.039062 -1.882812 0.671875 -2.984375 0.671875 -4.359375 C 0.671875 -5.742188 1.039062 -6.847656 1.78125 -7.671875 C 2.519531 -8.492188 3.503906 -8.90625 4.734375 -8.90625 Z M 4.734375 -8.90625 "/>
</symbol>
<symbol overflow="visible" id="glyph0-2">
<path style="stroke:none;" d="M 1.171875 -8.75 L 2.359375 -8.75 L 2.359375 -5.15625 L 6.65625 -5.15625 L 6.65625 -8.75 L 7.84375 -8.75 L 7.84375 0 L 6.65625 0 L 6.65625 -4.171875 L 2.359375 -4.171875 L 2.359375 0 L 1.171875 0 Z M 1.171875 -8.75 "/>
</symbol>
</g>
</defs>
<g id="surface9737">
<rect x="0" y="0" width="300" height="300" style="fill:rgb(100%,100%,100%);fill-opacity:1;stroke:none;"/>
<path style="fill:none;stroke-width:1.2;stroke-linecap:butt;stroke-linejoin:miter;stroke:rgb(100%,0%,0%);stroke-opacity:1;stroke-miterlimit:10;" d="M 170.292969 128.695312 L 184.929688 130.613281 "/>
<path style="fill:none;stroke-width:1.2;stroke-linecap:butt;stroke-linejoin:miter;stroke:rgb(0%,0%,0%);stroke-opacity:1;stroke-miterlimit:10;" d="M 184.929688 130.613281 L 199.5625 132.53125 "/>
<path style="fill:none;stroke-width:1.2;stroke-linecap:butt;stroke-linejoin:miter;stroke:rgb(0%,0%,0%);stroke-opacity:1;stroke-miterlimit:10;" d="M 152.335938 152.128906 L 161.3125 140.410156 "/>
<path style="fill:none;stroke-width:1.2;stroke-linecap:butt;stroke-linejoin:miter;stroke:rgb(100%,0%,0%);stroke-opacity:1;stroke-miterlimit:10;" d="M 161.3125 140.410156 L 170.292969 128.695312 "/>
<path style=" stroke:none;fill-rule:nonzero;fill:rgb(100%,100%,100%);fill-opacity:1;" d="M 165.292969 121.695312 L 175.292969 121.695312 L 175.292969 135.695312 L 165.292969 135.695312 Z M 165.292969 121.695312 "/>
<g style="fill:rgb(100%,0%,0%);fill-opacity:1;">
  <use xlink:href="#glyph0-1" x="165.292969" y="132.833984"/>
</g>
<path style="fill:none;stroke-width:1.2;stroke-linecap:butt;stroke-linejoin:miter;stroke:rgb(0%,0%,0%);stroke-opacity:1;stroke-miterlimit:10;" d="M 199.5625 132.53125 L 210.878906 159.796875 "/>
<path style="fill:none;stroke-width:1.2;stroke-linecap:butt;stroke-linejoin:miter;stroke:rgb(0%,0%,0%);stroke-opacity:1;stroke-miterlimit:10;" d="M 207.113281 132.59375 L 216.164062 154.410156 "/>
<path style="fill:none;stroke-width:1.2;stroke-linecap:butt;stroke-linejoin:miter;stroke:rgb(0%,0%,0%);stroke-opacity:1;stroke-miterlimit:10;" d="M 217.519531 109.097656 L 199.5625 132.53125 "/>
<path style="fill:none;stroke-width:1.2;stroke-linecap:butt;stroke-linejoin:miter;stroke:rgb(0%,0%,0%);stroke-opacity:1;stroke-miterlimit:10;" d="M 210.878906 159.796875 L 240.148438 163.632812 "/>
<path style="fill:none;stroke-width:1.2;stroke-linecap:butt;stroke-linejoin:miter;stroke:rgb(0%,0%,0%);stroke-opacity:1;stroke-miterlimit:10;" d="M 210.878906 159.796875 L 192.921875 183.230469 "/>
<path style="fill:none;stroke-width:1.2;stroke-linecap:butt;stroke-linejoin:miter;stroke:rgb(0%,0%,0%);stroke-opacity:1;stroke-miterlimit:10;" d="M 240.148438 163.632812 L 258.105469 140.203125 "/>
<path style="fill:none;stroke-width:1.2;stroke-linecap:butt;stroke-linejoin:miter;stroke:rgb(0%,0%,0%);stroke-opacity:1;stroke-miterlimit:10;" d="M 236.433594 157.066406 L 250.796875 138.320312 "/>
<path style="fill:none;stroke-width:1.2;stroke-linecap:butt;stroke-linejoin:miter;stroke:rgb(0%,0%,0%);stroke-opacity:1;stroke-miterlimit:10;" d="M 258.105469 140.203125 L 246.792969 112.933594 "/>
<path style="fill:none;stroke-width:1.2;stroke-linecap:butt;stroke-linejoin:miter;stroke:rgb(0%,0%,0%);stroke-opacity:1;stroke-miterlimit:10;" d="M 246.792969 112.933594 L 255.769531 101.21875 "/>
<path style="fill:none;stroke-width:1.2;stroke-linecap:butt;stroke-linejoin:miter;stroke:rgb(100%,0%,0%);stroke-opacity:1;stroke-miterlimit:10;" d="M 255.769531 101.21875 L 264.75 89.5 "/>
<path style="fill:none;stroke-width:1.2;stroke-linecap:butt;stroke-linejoin:miter;stroke:rgb(0%,0%,0%);stroke-opacity:1;stroke-miterlimit:10;" d="M 246.792969 112.933594 L 217.519531 109.097656 "/>
<path style="fill:none;stroke-width:1.2;stroke-linecap:butt;stroke-linejoin:miter;stroke:rgb(0%,0%,0%);stroke-opacity:1;stroke-miterlimit:10;" d="M 242.964844 119.4375 L 219.546875 116.371094 "/>
<path style=" stroke:none;fill-rule:nonzero;fill:rgb(100%,100%,100%);fill-opacity:1;" d="M 255.75 82.5 L 274.75 82.5 L 274.75 96.5 L 255.75 96.5 Z M 255.75 82.5 "/>
<g style="fill:rgb(100%,0%,0%);fill-opacity:1;">
  <use xlink:href="#glyph0-1" x="255.75" y="93.638672"/>
  <use xlink:href="#glyph0-2" x="265.195312" y="93.638672"/>
</g>
<path style="fill:none;stroke-width:1.2;stroke-linecap:butt;stroke-linejoin:miter;stroke:rgb(0%,0%,0%);stroke-opacity:1;stroke-miterlimit:10;" d="M 189.714844 184.5625 L 195.371094 198.195312 "/>
<path style="fill:none;stroke-width:1.2;stroke-linecap:butt;stroke-linejoin:miter;stroke:rgb(100%,0%,0%);stroke-opacity:1;stroke-miterlimit:10;" d="M 195.371094 198.195312 L 201.027344 211.828125 "/>
<path style="fill:none;stroke-width:1.2;stroke-linecap:butt;stroke-linejoin:miter;stroke:rgb(0%,0%,0%);stroke-opacity:1;stroke-miterlimit:10;" d="M 196.128906 181.898438 L 201.785156 195.535156 "/>
<path style="fill:none;stroke-width:1.2;stroke-linecap:butt;stroke-linejoin:miter;stroke:rgb(100%,0%,0%);stroke-opacity:1;stroke-miterlimit:10;" d="M 201.785156 195.535156 L 207.445312 209.167969 "/>
<path style="fill:none;stroke-width:1.2;stroke-linecap:butt;stroke-linejoin:miter;stroke:rgb(0%,0%,0%);stroke-opacity:1;stroke-miterlimit:10;" d="M 192.921875 183.230469 L 163.648438 179.394531 "/>
<path style=" stroke:none;fill-rule:nonzero;fill:rgb(100%,100%,100%);fill-opacity:1;" d="M 199.234375 203.5 L 209.234375 203.5 L 209.234375 217.5 L 199.234375 217.5 Z M 199.234375 203.5 "/>
<g style="fill:rgb(100%,0%,0%);fill-opacity:1;">
  <use xlink:href="#glyph0-1" x="199.234375" y="214.638672"/>
</g>
<path style="fill:none;stroke-width:1.2;stroke-linecap:butt;stroke-linejoin:miter;stroke:rgb(0%,0%,0%);stroke-opacity:1;stroke-miterlimit:10;" d="M 163.648438 179.394531 L 154.671875 191.113281 "/>
<path style="fill:none;stroke-width:1.2;stroke-linecap:butt;stroke-linejoin:miter;stroke:rgb(100%,0%,0%);stroke-opacity:1;stroke-miterlimit:10;" d="M 154.671875 191.113281 L 145.691406 202.828125 "/>
<path style="fill:none;stroke-width:1.2;stroke-linecap:butt;stroke-linejoin:miter;stroke:rgb(0%,0%,0%);stroke-opacity:1;stroke-miterlimit:10;" d="M 163.648438 179.394531 L 152.335938 152.128906 "/>
<path style="fill:none;stroke-width:1.2;stroke-linecap:butt;stroke-linejoin:miter;stroke:rgb(0%,0%,0%);stroke-opacity:1;stroke-miterlimit:10;" d="M 168.933594 174.007812 L 159.882812 152.191406 "/>
<path style=" stroke:none;fill-rule:nonzero;fill:rgb(100%,100%,100%);fill-opacity:1;" d="M 126.691406 195.828125 L 145.691406 195.828125 L 145.691406 209.828125 L 126.691406 209.828125 Z M 126.691406 195.828125 "/>
<g style="fill:rgb(100%,0%,0%);fill-opacity:1;">
  <use xlink:href="#glyph0-2" x="126.691406" y="206.966797"/>
  <use xlink:href="#glyph0-1" x="135.714844" y="206.966797"/>
</g>
<path style="fill:none;stroke-width:1.2;stroke-linecap:butt;stroke-linejoin:miter;stroke:rgb(0%,0%,0%);stroke-opacity:1;stroke-miterlimit:10;" d="M 152.335938 152.128906 L 123.0625 148.292969 "/>
<path style="fill:none;stroke-width:1.2;stroke-linecap:butt;stroke-linejoin:miter;stroke:rgb(0%,0%,0%);stroke-opacity:1;stroke-miterlimit:10;" d="M 123.0625 148.292969 L 111.75 121.027344 "/>
<path style="fill:none;stroke-width:1.2;stroke-linecap:butt;stroke-linejoin:miter;stroke:rgb(0%,0%,0%);stroke-opacity:1;stroke-miterlimit:10;" d="M 115.515625 148.226562 L 106.464844 126.414062 "/>
<path style="fill:none;stroke-width:1.2;stroke-linecap:butt;stroke-linejoin:miter;stroke:rgb(0%,0%,0%);stroke-opacity:1;stroke-miterlimit:10;" d="M 105.105469 171.726562 L 123.0625 148.292969 "/>
<path style="fill:none;stroke-width:1.2;stroke-linecap:butt;stroke-linejoin:miter;stroke:rgb(0%,0%,0%);stroke-opacity:1;stroke-miterlimit:10;" d="M 111.75 121.027344 L 82.480469 117.191406 "/>
<path style="fill:none;stroke-width:1.2;stroke-linecap:butt;stroke-linejoin:miter;stroke:rgb(0%,0%,0%);stroke-opacity:1;stroke-miterlimit:10;" d="M 82.480469 117.191406 L 76.820312 103.554688 "/>
<path style="fill:none;stroke-width:1.2;stroke-linecap:butt;stroke-linejoin:miter;stroke:rgb(100%,0%,0%);stroke-opacity:1;stroke-miterlimit:10;" d="M 76.820312 103.554688 L 71.164062 89.921875 "/>
<path style="fill:none;stroke-width:1.2;stroke-linecap:butt;stroke-linejoin:miter;stroke:rgb(0%,0%,0%);stroke-opacity:1;stroke-miterlimit:10;" d="M 82.480469 117.191406 L 64.519531 140.621094 "/>
<path style="fill:none;stroke-width:1.2;stroke-linecap:butt;stroke-linejoin:miter;stroke:rgb(0%,0%,0%);stroke-opacity:1;stroke-miterlimit:10;" d="M 86.195312 123.757812 L 71.832031 142.503906 "/>
<path style=" stroke:none;fill-rule:nonzero;fill:rgb(100%,100%,100%);fill-opacity:1;" d="M 52.164062 82.921875 L 71.164062 82.921875 L 71.164062 96.921875 L 52.164062 96.921875 Z M 52.164062 82.921875 "/>
<g style="fill:rgb(100%,0%,0%);fill-opacity:1;">
  <use xlink:href="#glyph0-2" x="52.164062" y="94.060547"/>
  <use xlink:href="#glyph0-1" x="61.1875" y="94.060547"/>
</g>
<path style="fill:none;stroke-width:1.2;stroke-linecap:butt;stroke-linejoin:miter;stroke:rgb(0%,0%,0%);stroke-opacity:1;stroke-miterlimit:10;" d="M 64.519531 140.621094 L 49.886719 138.703125 "/>
<path style="fill:none;stroke-width:1.2;stroke-linecap:butt;stroke-linejoin:miter;stroke:rgb(100%,0%,0%);stroke-opacity:1;stroke-miterlimit:10;" d="M 49.886719 138.703125 L 35.25 136.789062 "/>
<path style="fill:none;stroke-width:1.2;stroke-linecap:butt;stroke-linejoin:miter;stroke:rgb(0%,0%,0%);stroke-opacity:1;stroke-miterlimit:10;" d="M 64.519531 140.621094 L 75.835938 167.890625 "/>
<path style=" stroke:none;fill-rule:nonzero;fill:rgb(100%,100%,100%);fill-opacity:1;" d="M 16.25 129.789062 L 35.25 129.789062 L 35.25 143.789062 L 16.25 143.789062 Z M 16.25 129.789062 "/>
<g style="fill:rgb(100%,0%,0%);fill-opacity:1;">
  <use xlink:href="#glyph0-2" x="16.25" y="140.927734"/>
  <use xlink:href="#glyph0-1" x="25.273438" y="140.927734"/>
</g>
<path style="fill:none;stroke-width:1.2;stroke-linecap:butt;stroke-linejoin:miter;stroke:rgb(0%,0%,0%);stroke-opacity:1;stroke-miterlimit:10;" d="M 75.835938 167.890625 L 105.105469 171.726562 "/>
<path style="fill:none;stroke-width:1.2;stroke-linecap:butt;stroke-linejoin:miter;stroke:rgb(0%,0%,0%);stroke-opacity:1;stroke-miterlimit:10;" d="M 79.664062 161.386719 L 103.082031 164.453125 "/>
</g>
</svg>

<svg xmlns="http://www.w3.org/2000/svg" xmlns:xlink="http://www.w3.org/1999/xlink" width="300pt" height="300pt" viewBox="0 0 300 300"><defs><symbol overflow="visible"><path d="M.594 2.125V-8.47h6V2.126zm.672-.672h4.671V-7.78h-4.67zm0 0"/></symbol><symbol overflow="visible" id="a"><path d="M4.734-7.953c-.867 0-1.554.324-2.062.97-.5.635-.75 1.51-.75 2.624 0 1.094.25 1.965.75 2.61.508.637 1.195.953 2.062.953.852 0 1.532-.316 2.032-.953.507-.645.765-1.516.765-2.61 0-1.113-.257-1.988-.764-2.624-.5-.645-1.18-.97-2.032-.97zm0-.953c1.22 0 2.192.414 2.922 1.234.74.824 1.11 1.93 1.11 3.313 0 1.376-.37 2.477-1.11 3.298C6.926-.24 5.953.17 4.734.17c-1.23 0-2.214-.41-2.953-1.234C1.04-1.882.673-2.984.673-4.36c0-1.382.367-2.488 1.11-3.312.738-.82 1.722-1.234 2.952-1.234zm0 0"/></symbol><symbol overflow="visible" id="b"><path d="M1.172-8.75H2.36v3.594h4.296V-8.75h1.188V0H6.656v-4.172H2.36V0H1.17zm0 0"/></symbol></defs><g><path fill="#fff" d="M0 0h300v300H0z"/><path d="M170.293 128.695l14.637 1.918" stroke-width="1.2" stroke="#f00" stroke-miterlimit="10" fill="none"/><path d="M184.93 130.613l14.632 1.918M152.336 152.13l8.976-11.72" stroke-width="1.2" stroke="#000" stroke-miterlimit="10" fill="none"/><path d="M161.313 140.41l8.98-11.715" stroke-width="1.2" stroke="#f00" stroke-miterlimit="10" fill="none"/><path d="M165.293 121.695h10v14h-10zm0 0" fill="#fff"/><use xlink:href="#a" x="165.293" y="132.834" fill="#f00"/><path d="M199.563 132.53l11.316 27.267M207.113 132.594l9.05 21.816M217.52 109.098l-17.958 23.433M210.88 159.797l29.268 3.836M210.88 159.797L192.92 183.23M240.148 163.633l17.957-23.43M236.434 157.066l14.363-18.746M258.105 140.203l-11.312-27.27M246.793 112.934l8.977-11.715" stroke-width="1.2" stroke="#000" stroke-miterlimit="10" fill="none"/><path d="M255.77 101.22l8.98-11.72" stroke-width="1.2" stroke="#f00" stroke-miterlimit="10" fill="none"/><path d="M246.793 112.934l-29.273-3.836M242.965 119.438l-23.418-3.067" stroke-width="1.2" stroke="#000" stroke-miterlimit="10" fill="none"/><path d="M255.75 82.5h19v14h-19zm0 0" fill="#fff"/><g fill="#f00"><use xlink:href="#a" x="255.75" y="93.639"/><use xlink:href="#b" x="265.195" y="93.639"/></g><path d="M189.715 184.563l5.656 13.632" stroke-width="1.2" stroke="#000" stroke-miterlimit="10" fill="none"/><path d="M195.37 198.195l5.657 13.633" stroke-width="1.2" stroke="#f00" stroke-miterlimit="10" fill="none"/><path d="M196.13 181.898l5.655 13.637" stroke-width="1.2" stroke="#000" stroke-miterlimit="10" fill="none"/><path d="M201.785 195.535l5.66 13.633" stroke-width="1.2" stroke="#f00" stroke-miterlimit="10" fill="none"/><path d="M192.922 183.23l-29.274-3.835" stroke-width="1.2" stroke="#000" stroke-miterlimit="10" fill="none"/><path d="M199.234 203.5h10v14h-10zm0 0" fill="#fff"/><use xlink:href="#a" x="199.234" y="214.639" fill="#f00"/><path d="M163.648 179.395l-8.976 11.718" stroke-width="1.2" stroke="#000" stroke-miterlimit="10" fill="none"/><path d="M154.672 191.113l-8.98 11.715" stroke-width="1.2" stroke="#f00" stroke-miterlimit="10" fill="none"/><path d="M163.648 179.395l-11.312-27.266M168.934 174.008l-9.05-21.817" stroke-width="1.2" stroke="#000" stroke-miterlimit="10" fill="none"/><path d="M126.69 195.828h19v14h-19zm0 0" fill="#fff"/><g fill="#f00"><use xlink:href="#b" x="126.691" y="206.967"/><use xlink:href="#a" x="135.715" y="206.967"/></g><path d="M152.336 152.13l-29.274-3.837M123.063 148.293l-11.313-27.266M115.516 148.227l-9.05-21.813M105.105 171.727l17.957-23.434M111.75 121.027l-29.27-3.836M82.48 117.19l-5.66-13.635" stroke-width="1.2" stroke="#000" stroke-miterlimit="10" fill="none"/><path d="M76.82 103.555l-5.656-13.633" stroke-width="1.2" stroke="#f00" stroke-miterlimit="10" fill="none"/><path d="M82.48 117.19l-17.96 23.43M86.195 123.758l-14.363 18.746" stroke-width="1.2" stroke="#000" stroke-miterlimit="10" fill="none"/><path d="M52.164 82.922h19v14h-19zm0 0" fill="#fff"/><g fill="#f00"><use xlink:href="#b" x="52.164" y="94.061"/><use xlink:href="#a" x="61.188" y="94.061"/></g><path d="M64.52 140.62l-14.633-1.917" stroke-width="1.2" stroke="#000" stroke-miterlimit="10" fill="none"/><path d="M49.887 138.703L35.25 136.79" stroke-width="1.2" stroke="#f00" stroke-miterlimit="10" fill="none"/><path d="M64.52 140.62l11.316 27.27" stroke-width="1.2" stroke="#000" stroke-miterlimit="10" fill="none"/><path d="M16.25 129.79h19v14h-19zm0 0" fill="#fff"/><g fill="#f00"><use xlink:href="#b" x="16.25" y="140.928"/><use xlink:href="#a" x="25.273" y="140.928"/></g><path d="M75.836 167.89l29.27 3.837M79.664 161.387l23.418 3.066" stroke-width="1.2" stroke="#000" stroke-miterlimit="10" fill="none"/></g></svg>
